icon/cg/volume.svg

<svg viewBox="0 0 24 24" fill="none" xmlns="http://www.w3.org/2000/svg" height="1em" width="1em">
  <path d="M24 12C24 16.4183 20.4183 20 16 20V18C19.3137 18 22 15.3137 22 12C22 8.68629 19.3137 6 16 6V4C20.4183 4 24 7.58172 24 12Z" fill="currentColor"/>
  <path d="M20 12C20 14.2091 18.2091 16 16 16V14C17.1046 14 18 13.1046 18 12C18 10.8954 17.1046 10 16 10V8C18.2091 8 20 9.79086 20 12Z" fill="currentColor"/>
  <path fill-rule="evenodd" clip-rule="evenodd" d="M9 16L15 20V4L9 8H5C2.79086 8 1 9.79086 1 12C1 14.2091 2.79086 16 5 16H9ZM5 10H9L13 7.5V16.5L9 14H5C3.89543 14 3 13.1046 3 12C3 10.8954 3.89543 10 5 10Z" fill="currentColor"/>
</svg>

<svg width="24" height="24" fill="none" xmlns="http://www.w3.org/2000/svg"><path d="M24 12a8 8 0 0 1-8 8v-2a6 6 0 0 0 0-12V4a8 8 0 0 1 8 8Z" fill="currentColor"/><path d="M20 12a4 4 0 0 1-4 4v-2a2 2 0 1 0 0-4V8a4 4 0 0 1 4 4Z" fill="currentColor"/><path fill-rule="evenodd" clip-rule="evenodd" d="m9 16 6 4V4L9 8H5a4 4 0 1 0 0 8h4Zm-4-6h4l4-2.5v9L9 14H5a2 2 0 1 1 0-4Z" fill="currentColor"/></svg>
